X: 19891
T: Jig For Grace
R: jig
M: 6/8
K: Dmajor
|:A|DFA ~d3|edc def|afb afe|f2e dBA|
DFA ~d3|edc def|afb afe|edc ~d2:|
|:f|afb afe|def dBA|afb afe|fga b2a|
afb afe|def dBA|dcB AFE|DFA ~B2:|

